modules/hawcons-stroke/icons/boxing-glove.svg

<?xml version="1.0" encoding="UTF-8" standalone="no"?>
<svg width="32px" height="32px" viewBox="0 0 32 32" version="1.1" xmlns="http://www.w3.org/2000/svg" xmlns:xlink="http://www.w3.org/1999/xlink" xmlns:sketch="http://www.bohemiancoding.com/sketch/ns">
    <!-- Generator: Sketch 3.0.3 (7891) - http://www.bohemiancoding.com/sketch -->
    <title>icon 37 boxing glove</title>
    <desc>Created with Sketch.</desc>
    <defs></defs>
    <g id="Page-1" stroke="none" stroke-width="1" fill="none" fill-rule="evenodd" sketch:type="MSPage">
        <g id="icon-37-boxing-glove" sketch:type="MSArtboardGroup" fill="#929292">
            <path d="M14.9834799,14.0482616 L14.9863593,12.9940809 C14.9938979,10.2340897 17.2390681,8 20.0010987,8 L20.9989013,8 C23.7607271,8 26,10.2362404 26,12.9947828 L26,23 L14.8999939,23 C14,19.96521 11,20.130127 11,17 C11,15.1035625 13.6710657,14.9720347 14.6372981,14.9864959 C14.683029,15.0027983 14.7320421,15.0200785 14.7841872,15.0382379 C15.1693401,15.1723669 15.589749,15.3063658 16.0322929,15.4315108 C16.7952263,15.6472574 17.5433918,15.8139223 18.2498715,15.9122459 C18.7066125,15.9758124 19.1374821,16.0093994 19.5386963,16.0093994 C20.5749775,16.0093994 21.6279477,15.8013237 22.6474614,15.4553883 C23.0027627,15.3348296 23.3290774,15.2055675 23.6198589,15.0759082 C23.7968441,14.9969906 23.9246157,14.9343998 23.9964906,14.8963793 L23.5289,14.0124342 C23.4761259,14.0403507 23.3683428,14.0931498 23.212611,14.1625905 C22.9488643,14.2801951 22.6509753,14.3981969 22.3261409,14.5084178 C21.4024097,14.8218528 20.4533275,15.0093994 19.5386963,15.0093994 C19.1868075,15.0093994 18.801239,14.9793437 18.387717,14.9217922 C17.7312525,14.8304293 17.0263672,14.6734058 16.3044075,14.469246 C15.8820852,14.3498193 15.4803649,14.2217771 15.1130639,14.093865 C15.0671307,14.0778688 15.0238941,14.0626408 14.9834799,14.0482616 L14.9834799,14.0482616 Z M14,24 C14,20.923584 10.0092195,21 10,17 C9.99308539,14.000008 14,14 14,14 L14,12.9970707 C14,9.68636322 16.6886682,7 20.0053084,7 L20.9946916,7 C24.3063916,7 27,9.68341003 27,12.9935641 L27,24 L27,26 C27,27.1122704 26.1033337,28 24.9972399,28 L16.0027601,28 C14.8935426,28 14,27.1045695 14,26 L14,24 L14,24 L14,24 Z M15,24 L15,26.0010434 C15,26.5527519 15.444837,27 15.9955775,27 L25.0044225,27 C25.5542648,27 26,26.5573397 26,26.0010434 L26,24 L15,24 L15,24 Z M16,25 L16,26 L20,26 L20,25 L16,25 L16,25 Z" id="boxing-glove" sketch:type="MSShapeGroup"></path>
        </g>
    </g>
</svg>

<svg width="32" height="32" viewBox="0 0 32 32" xmlns="http://www.w3.org/2000/svg"><path d="M14.983 14.048l.003-1.054A5.013 5.013 0 0 1 20.001 8H21A4.998 4.998 0 0 1 26 12.995V23H14.9c-.9-3.035-3.9-2.87-3.9-6 0-1.896 2.671-2.028 3.637-2.014a21.278 21.278 0 0 0 1.395.446c.763.215 1.511.382 2.218.48.457.064.887.097 1.289.097 1.036 0 2.089-.208 3.108-.554.356-.12.682-.25.973-.38a6.7 6.7 0 0 0 .376-.179l-.467-.884c-.053.028-.16.081-.316.15-.264.118-.562.236-.887.346-.924.314-1.873.501-2.787.501-.352 0-.738-.03-1.151-.087a15.731 15.731 0 0 1-2.084-.453 21.102 21.102 0 0 1-1.32-.42zM14 24c0-3.076-3.99-3-4-7-.007-3 4-3 4-3v-1.003A6.002 6.002 0 0 1 20.005 7h.99C24.306 7 27 9.683 27 12.994V26c0 1.112-.897 2-2.003 2h-8.994A2 2 0 0 1 14 26v-2zm1 0v2.001c0 .552.445.999.996.999h9.008c.55 0 .996-.443.996-.999V24H15zm1 1v1h4v-1h-4z" fill="#929292" fill-rule="evenodd"/></svg>
